icons/baby_formula_fill.svg

<svg width="48" height="48" viewBox="0 0 48 48" fill="none" xmlns="http://www.w3.org/2000/svg">
<path d="M11.6826 4L18.6826 9.00002H37.5974C37.5836 8.98978 37.5695 8.97991 37.555 8.97042L30.4494 4.29566C30.1555 4.10234 29.8175 4 29.4726 4H11.6826Z" fill="black"/>
<path d="M10 5.20186V9.13961C10 9.51445 10.0983 9.88175 10.2837 10.1996L13.4133 15.5646C13.7092 16.0719 14.3519 16.1892 14.7878 15.8155L16.7661 14.1199C17.2089 13.7403 17.4667 13.1657 17.4667 12.5581V10.5352L10 5.20186Z" fill="black"/>
<path d="M10 13.4868V38.1774C10 38.525 10.1685 38.8477 10.445 39.0296L12.8 40.5789L12.8 17.6309C12.4183 17.3944 12.0824 17.0567 11.8304 16.6246L10 13.4868Z" fill="black"/>
<path d="M14.6667 41.807L17.4667 43.6491V16.0806L15.9539 17.3772C15.5651 17.7105 15.1215 17.9136 14.6667 17.9945L14.6667 41.807Z" fill="black"/>
<path d="M24.9333 22C24.9333 21.4477 25.3512 21 25.8667 21H31.4667C31.9821 21 32.4 21.4477 32.4 22C32.4 22.5523 31.9821 23 31.4667 23H25.8667C25.3512 23 24.9333 22.5523 24.9333 22Z" fill="black"/>
<path d="M26.8 25C26.8 24.4477 27.2179 24 27.7333 24H29.6C30.1155 24 30.5333 24.4477 30.5333 25C30.5333 25.5523 30.1155 26 29.6 26H27.7333C27.2179 26 26.8 25.5523 26.8 25Z" fill="black"/>
<path fill-rule="evenodd" clip-rule="evenodd" d="M19.3333 44H37.0667C37.5821 44 38 43.5523 38 43V11H19.3333V44ZM28.6667 30C32.2749 30 35.2 26.866 35.2 23C35.2 19.134 32.2749 16 28.6667 16C25.0584 16 22.1333 19.134 22.1333 23C22.1333 26.866 25.0584 30 28.6667 30Z" fill="black"/>
</svg>

<svg
  xmlns="http://www.w3.org/2000/svg"
  width="24"
  height="24"
  viewBox="0 0 24 24"
  fill="none"
  stroke="currentColor"
  stroke-width="2"
  stroke-linecap="round"
  stroke-linejoin="round"
>
  <path d="m11.683 4 7 5h18.914l-.042-.03-7.106-4.674A1.78 1.78 0 0 0 29.473 4z" />
  <path d="M10 5.202V9.14c0 .374.098.742.284 1.06l3.13 5.365c.295.507.938.624 1.374.25l1.978-1.695c.443-.38.7-.954.7-1.562v-2.023z" />
  <path d="M10 13.487v24.69c0 .348.168.67.445.853l2.355 1.549V17.63a2.9 2.9 0 0 1-.97-1.006z" />
  <path d="m14.667 41.807 2.8 1.842V16.081l-1.513 1.296a2.7 2.7 0 0 1-1.287.617z" />
  <path d="M24.933 22c0-.552.418-1 .934-1h5.6c.515 0 .933.448.933 1s-.418 1-.933 1h-5.6c-.516 0-.934-.448-.934-1" />
  <path d="M26.8 25c0-.552.418-1 .933-1H29.6c.515 0 .933.448.933 1s-.418 1-.933 1h-1.867c-.515 0-.933-.448-.933-1" />
  <path
    fill-rule="evenodd"
    d="M19.333 44h17.734c.515 0 .933-.448.933-1V11H19.333zm9.334-14c3.608 0 6.533-3.134 6.533-7s-2.925-7-6.533-7-6.534 3.134-6.534 7 2.925 7 6.534 7"
    clip-rule="evenodd"
  />
</svg>
